src/48x48/places/folder-gruvbox-original-green-nextcloud.svg

<?xml version="1.0" encoding="UTF-8"?>
<svg width="48" height="48" version="1" xmlns="http://www.w3.org/2000/svg">
 <rect x="4" y="17" width="40" height="26" rx="2" ry="2" opacity=".2"/>
 <path d="m4 34c0 1.108 0.892 2 2 2h36c1.108 0 2-0.892 2-2v-22c0-1.108-0.892-2-2-2h-18c-3 0-4-4-7-4h-11c-1.108 0-2 0.892-2 2" fill="#79740e"/>
 <rect x="4" y="15" width="40" height="26" rx="2" ry="2" opacity=".2"/>
 <rect x="6" y="13" width="36" height="16" rx="2" ry="2" fill="#d7d9ae"/>
 <rect x="4" y="16" width="40" height="26" rx="2" ry="2" fill="#b8bb26"/>
 <path d="m6 6c-1.108 0-2 0.892-2 2v1c0-1.108 0.892-2 2-2h11c3 0 4 4 7 4h18c1.108 0 2 0.892 2 2v-1c0-1.108-0.892-2-2-2h-18c-3 0-4-4-7-4z" fill="#d7d9ae" opacity=".1"/>
 <path d="m35 24a5 5 0 0 0-5 5 5 5 0 0 0 5 5 5 5 0 0 0 5-5 5 5 0 0 0-5-5zm0 3a2 2 0 0 1 2 2 2 2 0 0 1-2 2 2 2 0 0 1-2-2 2 2 0 0 1 2-2zm-22-3a5 5 0 0 0-5 5 5 5 0 0 0 5 5 5 5 0 0 0 5-5 5 5 0 0 0-5-5zm0 3a2 2 0 0 1 2 2 2 2 0 0 1-2 2 2 2 0 0 1-2-2 2 2 0 0 1 2-2zm11-4a6 6 0 0 0-6 6 6 6 0 0 0 6 6 6 6 0 0 0 6-6 6 6 0 0 0-6-6zm0 3a3 3 0 0 1 3 3 3 3 0 0 1-3 3 3 3 0 0 1-3-3 3 3 0 0 1 3-3z" fill="#333e34"/>
</svg>

<svg xmlns="http://www.w3.org/2000/svg" width="48" height="48" version="1">
 <rect style="opacity:0.2" width="40" height="26" x="4" y="17" rx="2" ry="2"/>
 <path style="fill:#79740e" d="M 4,34 C 4,35.108 4.892,36 6,36 H 42 C 43.108,36 44,35.108 44,34 V 12 C 44,10.892 43.108,10 42,10 H 24 C 21,10 20,6 17,6 H 6 C 4.892,6 4,6.892 4,8"/>
 <rect style="opacity:0.2" width="40" height="26" x="4" y="15" rx="2" ry="2"/>
 <rect style="fill:#d7d9ae" width="36" height="16" x="6" y="13" rx="2" ry="2"/>
 <rect style="fill:#b8bb26" width="40" height="26" x="4" y="16" rx="2" ry="2"/>
 <path style="opacity:0.1;fill:#d7d9ae" d="M 6,6 C 4.892,6 4,6.892 4,8 V 9 C 4,7.892 4.892,7 6,7 H 17 C 20,7 21,11 24,11 H 42 C 43.108,11 44,11.892 44,13 V 12 C 44,10.892 43.108,10 42,10 H 24 C 21,10 20,6 17,6 Z"/>
 <path style="fill:#333e34" d="M 35,24 A 5,5 0 0 0 30,29 5,5 0 0 0 35,34 5,5 0 0 0 40,29 5,5 0 0 0 35,24 Z M 35,27 A 2,2 0 0 1 37,29 2,2 0 0 1 35,31 2,2 0 0 1 33,29 2,2 0 0 1 35,27 Z M 13,24 A 5,5 0 0 0 8,29 5,5 0 0 0 13,34 5,5 0 0 0 18,29 5,5 0 0 0 13,24 Z M 13,27 A 2,2 0 0 1 15,29 2,2 0 0 1 13,31 2,2 0 0 1 11,29 2,2 0 0 1 13,27 Z M 24,23 A 6,6 0 0 0 18,29 6,6 0 0 0 24,35 6,6 0 0 0 30,29 6,6 0 0 0 24,23 Z M 24,26 A 3,3 0 0 1 27,29 3,3 0 0 1 24,32 3,3 0 0 1 21,29 3,3 0 0 1 24,26 Z"/>
</svg>
